X:7
T:Battle Hymn of the Republic
% Four-part piano arrangement for standard notation.
C:Julia Ward Howe/Air: "John Brown's Body"
S:Source "The One Hundred and One Best Songs" - The Cable Company - 1919 - Chicago, Illinois
M:4/4
L:1/8
Q:1/8=168
%%staves [(1 2) (3 4)]
%%staffsep 30pt
K:Bb
V:1 clef=treble
"^Allegretto"F/- F/ | F > F F > E D > F B > c | d > d d > c B2 B > A |
%%vocalfont Times-Roman 13.0
w:1.~Mine* eyes have seen the glo-ry of the com-ing of the Lord; He is
w:2.~I have seen Him in the watch-fires of a hun-dred cir-cling camps; They have
w:3.~I have read a fier-y gos-pel writ in bur-nished rows of steel: "As ye
w:4.~He has sound-ed forth the trump-et that shall nev-er call re-treat; He is
w:5.~In the beau-ty of the lil-ies Christ was born a-cross the sea, With a
V:2 clef=treble
D/- D/ | D > D D > C B, > D F > F | F > F F > E D2 F > F |
V:3 clef=bass
%%MIDI transpose -24
%%jsastem=dn
b/- b/ | b > b b > f f > b b > a | b > b b > a b2 b > b |
V:4 clef=bass
%%MIDI transpose -24
%%jsastem=dn
B/- B/ | B > B B > B B > B d > f | b > b b > f B2 d > d |
V:1
G > G G > A B > A B > G | F > G F > D F2 F > F |
w:tram-pling out the vint-age where the grapes of wrath are stored; He hath
w:build-ed Him an al-tar in the eve-ning dews and damp; I can
w:deal with My con-tem-ners, so with you My grace shall deal." Let the
w:sift-ing out the hearts of men be-fore His judg-ment-seat; Oh, be
w:glo-ry in His bos-om that trans-fig-ures you and me; As He
V:2
E > E E > F G > F G > E | D > E D > B, D2 D > D |
V:3
b > b b > b e' > e' e' > b | b > b b > f b2 b > b |
V:4
e > e e > e e > e e > e | B > B B > B B2 B > B |
V:1
F > F F > E D > F B > c | d > d d > c B2 B2 | c2 c2 B2 A2 | B4 z4 |
w:loosed the fate-ful light-ning of His ter-ri-ble swift sword, His truth is march-ing on.
w:read His right-eous sen-tence by the dim and flar-ing lamps, His day is march-ing on.
w:He-ro, born of wom-an crush the ser-pent with His heel, Since God is march-ing on.
w:swift, my soul, to an-swer Him! be ju-bi-lant, my feet! Our God is march-ing on.
w:died to make men ho-ly, let us die to make men free, While God is march-ing on.
V:2
D > D D > C B, > D F > F | F > F F > E D2 F2 | G2 G2 F2 E2 | D4 z4 |
V:3
b > b b > f f > b b > a | b > b b > b b2 b2 | e'2 e'2 d'2 c'2 | b4 z4 |
V:4
B > B B > B B > B d > f | b > b f > f B2 d2 | e2 e2 f2 f2 | B4 z4 |
V:1
"^CHORUS."F3 E D > F B > c | d4 B2 z2 | G3 A B > A B > G | F4 D4 |
w:
w:
w:Glo-ry! glo-ry! Hal-le-lu-jah! Glo-ry, glo-ry! Hal-le-lu-jah!
V:2
D3 C B, > D D > E | F4 D2 z2 | E3 F G > F G > E | D4 B,4 |
V:3
b3 b f > b b > b | b4 f2 z2 | b3 b b > b b > b | b4 f4 |
V:4
B3 B B > B B > B | B4 B2 z2 | e3 e e > e e > e | B4 B4 |
V:1
F3 E D > F B > c | d4 B2 B2 | c2 c2 B2 A2 | B6 z2 |]
w:
w:
w:Glo-ry! glo-ry! Hal-le-lu-jah! His truth is march-ing on.
V:2
D3 C B, > D D > E | F4 D2 F2 | G2 G2 F2 E2 | D6 z2 |]
V:3
b3 b f > f f > f | b4 f2 b2 | e'2 e'2 d'2 c'2 | b6 z2 |]
V:4
B3 B B > B B > B | B4 B2 d2 | e2 e2 f2 f2 | B6 z2 |]

%%newpage

